common/src/main/resources/glyphs/plugins/datagrip/expui/stringKey.svg

<svg xmlns="http://www.w3.org/2000/svg" width="16" height="16" fill="#AB7967" data-big="true" viewBox="0 0 24 24"><path d="M6 11a2 2 0 0 1 2 2v4H4a2 2 0 0 1-2-2v-2a2 2 0 0 1 2-2zm-2 2v2h2v-2zm16 0v2h2v2h-2a2 2 0 0 1-2-2v-2a2 2 0 0 1 2-2h2v2zm-8-6v4h2a2 2 0 0 1 2 2v2a2 2 0 0 1-2 2h-2a2 2 0 0 1-2-2V7zm0 8h2v-2h-2z"/><path fill="#FDD835" d="M14.25 19.5a1.5 1.5 0 0 1-1.5-1.5 1.5 1.5 0 0 1 1.5-1.5 1.5 1.5 0 0 1 1.5 1.5 1.5 1.5 0 0 1-1.5 1.5m4.238-3a4.49 4.49 0 0 0-4.238-3 4.5 4.5 0 0 0-4.5 4.5 4.5 4.5 0 0 0 4.5 4.5 4.49 4.49 0 0 0 4.238-3h3.262v3h3v-3h1.5v-3z"/></svg>

<!--
  - The MIT License (MIT)
  -
  - Copyright (c) 2015-2024 Elior "Mallowigi" Boukhobza
  -
  - Permission is hereby granted, free of charge, to any person obtaining a copy
  - of this software and associated documentation files (the "Software"), to deal
  - in the Software without restriction, including without limitation the rights
  - to use, copy, modify, merge, publish, distribute, sublicense, and/or sell
  - copies of the Software, and to permit persons to whom the Software is
  - furnished to do so, subject to the following conditions:
  -
  - The above copyright notice and this permission notice shall be included in all
  - copies or substantial portions of the Software.
  -
  - THE SOFTWARE IS PROVIDED "AS IS", WITHOUT WARRANTY OF ANY KIND, EXPRESS OR
  - IMPLIED, INCLUDING BUT NOT LIMITED TO THE WARRANTIES OF MERCHANTABILITY,
  - FITNESS FOR A PARTICULAR PURPOSE AND NONINFRINGEMENT. IN NO EVENT SHALL THE
  - AUTHORS OR COPYRIGHT HOLDERS BE LIABLE FOR ANY CLAIM, DAMAGES OR OTHER
  - LIABILITY, WHETHER IN AN ACTION OF CONTRACT, TORT OR OTHERWISE, ARISING FROM,
  - OUT OF OR IN CONNECTION WITH THE SOFTWARE OR THE USE OR OTHER DEALINGS IN THE
  - SOFTWARE.
  -->


<svg data-big="true" xmlns="http://www.w3.org/2000/svg" version="1.1" width="16px" height="16px" fill="#AB7967"
     viewBox="0 0 24 24">
  <path
    d="M6,11A2,2 0 0,1 8,13V17H4A2,2 0 0,1 2,15V13A2,2 0 0,1 4,11H6M4,13V15H6V13H4M20,13V15H22V17H20A2,2 0 0,1 18,15V13A2,2 0 0,1 20,11H22V13H20M12,7V11H14A2,2 0 0,1 16,13V15A2,2 0 0,1 14,17H12A2,2 0 0,1 10,15V7H12M12,15H14V13H12V15Z"/>
  <path transform="scale(.75) translate(12 12)" fill="#FDD835"
        d="M7,14A2,2 0 0,1 5,12A2,2 0 0,1 7,10A2,2 0 0,1 9,12A2,2 0 0,1 7,14M12.65,10C11.83,7.67 9.61,6 7,6A6,6 0 0,0 1,12A6,6 0 0,0 7,18C9.61,18 11.83,16.33 12.65,14H17V18H21V14H23V10H12.65Z"/>
</svg>
